Numix/16/status/indicator-keyboard-Ki-1.svg

<?xml version="1.0" encoding="UTF-8" standalone="no"?>
<svg
   xmlns:dc="http://purl.org/dc/elements/1.1/"
   xmlns:cc="http://creativecommons.org/ns#"
   xmlns:rdf="http://www.w3.org/1999/02/22-rdf-syntax-ns#"
   xmlns:svg="http://www.w3.org/2000/svg"
   xmlns="http://www.w3.org/2000/svg"
   xmlns:sodipodi="http://sodipodi.sourceforge.net/DTD/sodipodi-0.dtd"
   xmlns:inkscape="http://www.inkscape.org/namespaces/inkscape"
   viewBox="0 0 16 16"
   id="svg2"
   version="1.1"
   inkscape:version="0.91 r13725"
   sodipodi:docname="indicator-keyboard-Ki-1.svg">
  <metadata
     id="metadata14">
    <rdf:RDF>
      <cc:Work
         rdf:about="">
        <dc:format>image/svg+xml</dc:format>
        <dc:type
           rdf:resource="http://purl.org/dc/dcmitype/StillImage" />
      </cc:Work>
    </rdf:RDF>
  </metadata>
  <defs
     id="defs12" />
  <sodipodi:namedview
     pagecolor="#ffffff"
     bordercolor="#666666"
     borderopacity="1"
     objecttolerance="10"
     gridtolerance="10"
     guidetolerance="10"
     inkscape:pageopacity="0"
     inkscape:pageshadow="2"
     inkscape:window-width="640"
     inkscape:window-height="480"
     id="namedview10"
     showgrid="false"
     inkscape:zoom="14.75"
     inkscape:cx="8"
     inkscape:cy="8"
     inkscape:window-x="65"
     inkscape:window-y="24"
     inkscape:window-maximized="0"
     inkscape:current-layer="svg2" />
  <path
     style="fill:#ececec;fill-opacity:1"
     d="M 1.5996094 0 C 0.71320937 2.9605947e-16 0 0.71320937 0 1.5996094 L 0 14.400391 C 2.9605947e-16 15.286791 0.71320937 16 1.5996094 16 L 14.400391 16 C 15.286791 16 16 15.286791 16 14.400391 L 16 1.5996094 C 16 0.71320937 15.286791 0 14.400391 0 L 1.5996094 0 z M 9.2597656 4.5898438 C 9.3797656 4.5898438 9.4804531 4.6308438 9.5644531 4.7148438 C 9.6484531 4.7928438 9.6914062 4.9010625 9.6914062 5.0390625 C 9.6914062 5.1770625 9.6484531 5.2870937 9.5644531 5.3710938 C 9.4804531 5.4490937 9.3797656 5.4882813 9.2597656 5.4882812 C 9.1397656 5.4882812 9.037125 5.4490937 8.953125 5.3710938 C 8.869125 5.2870937 8.828125 5.1770625 8.828125 5.0390625 C 8.828125 4.9010625 8.869125 4.7928438 8.953125 4.7148438 C 9.037125 4.6308438 9.1397656 4.5898437 9.2597656 4.5898438 z M 3.6113281 4.859375 L 4.2226562 4.859375 L 4.2226562 7.765625 C 4.4506562 7.561625 4.7025156 7.3284531 4.9785156 7.0644531 C 5.2605156 6.7944531 5.5366406 6.5239062 5.8066406 6.2539062 C 6.0826406 5.9839063 6.3400781 5.7264687 6.5800781 5.4804688 C 6.8200781 5.2344688 7.01225 5.027375 7.15625 4.859375 L 7.8945312 4.859375 C 7.7205312 5.045375 7.511625 5.2673906 7.265625 5.5253906 C 7.019625 5.7773906 6.7584219 6.0385937 6.4824219 6.3085938 C 6.2064219 6.5785938 5.9302969 6.845375 5.6542969 7.109375 C 5.3842969 7.367375 5.1398281 7.5949688 4.9238281 7.7929688 C 5.0978281 7.9009687 5.2844219 8.0352656 5.4824219 8.1972656 C 5.6864219 8.3532656 5.8917031 8.5287031 6.0957031 8.7207031 C 6.3057031 8.9067031 6.5090313 9.1044531 6.7070312 9.3144531 C 6.9110313 9.5184531 7.0994375 9.7255469 7.2734375 9.9355469 C 7.4534375 10.145547 7.612 10.348875 7.75 10.546875 C 7.894 10.744875 8.0115625 10.927703 8.1015625 11.095703 L 7.4179688 11.095703 C 7.2139688 10.783703 6.9826094 10.475922 6.7246094 10.169922 C 6.4726094 9.8639217 6.2058281 9.5746875 5.9238281 9.3046875 C 5.6418281 9.0346875 5.3545469 8.7884063 5.0605469 8.5664062 C 4.7725469 8.3444063 4.4926562 8.1597656 4.2226562 8.0097656 L 4.2226562 11.095703 L 3.6113281 11.095703 L 3.6113281 4.859375 z M 8.9707031 6.4433594 L 9.5566406 6.4433594 L 9.5566406 11.095703 L 8.9707031 11.095703 L 8.9707031 6.4433594 z M 12.121094 8.8417969 L 12.388672 8.8417969 L 12.388672 12.896484 L 12.009766 12.896484 L 12.009766 9.421875 C 11.966866 9.468675 11.910044 9.5157063 11.839844 9.5664062 C 11.773544 9.6171063 11.697128 9.66805 11.611328 9.71875 C 11.525528 9.76555 11.435397 9.812575 11.341797 9.859375 C 11.248197 9.902275 11.154147 9.9375437 11.060547 9.9648438 L 10.949219 9.671875 C 11.183219 9.5899751 11.392872 9.4880813 11.576172 9.3632812 C 11.759472 9.2345813 11.941694 9.0601969 12.121094 8.8417969 z "
     id="path4" />
</svg>

<svg xmlns="http://www.w3.org/2000/svg" viewBox="0 0 16 16">
 <path d="m 1.6 0 c -0.886 0 -1.6 0.713 -1.6 1.6 l 0 12.801 c 0 0.886 0.713 1.6 1.6 1.6 l 12.801 0 c 0.886 0 1.6 -0.713 1.6 -1.6 l 0 -12.801 c 0 -0.886 -0.713 -1.6 -1.6 -1.6 l -12.801 0 z m 7.66 4.59 c 0.12 0 0.221 0.041 0.305 0.125 c 0.084 0.078 0.127 0.186 0.127 0.324 c 0 0.138 -0.043 0.248 -0.127 0.332 c -0.084 0.078 -0.185 0.117 -0.305 0.117 c -0.12 0 -0.223 -0.039 -0.307 -0.117 c -0.084 -0.084 -0.125 -0.194 -0.125 -0.332 c 0 -0.138 0.041 -0.246 0.125 -0.324 c 0.084 -0.084 0.187 -0.125 0.307 -0.125 z m -5.648 0.27 l 0.611 0 l 0 2.906 c 0.228 -0.204 0.48 -0.437 0.756 -0.701 c 0.282 -0.27 0.558 -0.541 0.828 -0.811 c 0.276 -0.27 0.533 -0.527 0.773 -0.773 c 0.24 -0.246 0.432 -0.453 0.576 -0.621 l 0.738 0 c -0.174 0.186 -0.383 0.408 -0.629 0.666 c -0.246 0.252 -0.507 0.513 -0.783 0.783 c -0.276 0.27 -0.552 0.537 -0.828 0.801 c -0.27 0.258 -0.514 0.486 -0.73 0.684 c 0.174 0.108 0.361 0.242 0.559 0.404 c 0.204 0.156 0.409 0.331 0.613 0.523 c 0.21 0.186 0.413 0.384 0.611 0.594 c 0.204 0.204 0.392 0.411 0.566 0.621 c 0.18 0.21 0.339 0.413 0.477 0.611 c 0.144 0.198 0.262 0.381 0.352 0.549 l -0.684 0 c -0.204 -0.312 -0.435 -0.62 -0.693 -0.926 c -0.252 -0.306 -0.519 -0.595 -0.801 -0.865 c -0.282 -0.27 -0.569 -0.516 -0.863 -0.738 c -0.288 -0.222 -0.568 -0.407 -0.838 -0.557 l 0 3.086 l -0.611 0 l 0 -6.236 z m 5.359 1.584 l 0.586 0 l 0 4.652 l -0.586 0 l 0 -4.652 z m 3.15 2.398 l 0.268 0 l 0 4.055 l -0.379 0 l 0 -3.475 c -0.043 0.047 -0.1 0.094 -0.17 0.145 c -0.066 0.051 -0.143 0.102 -0.229 0.152 c -0.086 0.047 -0.176 0.094 -0.27 0.141 c -0.094 0.043 -0.188 0.078 -0.281 0.105 l -0.111 -0.293 c 0.234 -0.082 0.444 -0.184 0.627 -0.309 c 0.183 -0.129 0.366 -0.303 0.545 -0.521 z" style="fill:#ececec;fill-opacity:1"/>
</svg>
